22x22/actions/mail-signed-part.svg

<svg xmlns="http://www.w3.org/2000/svg" viewBox="0 0 22 22">
  <defs id="defs3051">
    <style type="text/css" id="current-color-scheme">
      .ColorScheme-Text {
        color:#5d656b;
      }
      </style>
  </defs>
 <path 
     style="fill:currentColor;fill-opacity:1;stroke:none" 
     d="M 1 3 L 1 4 L 1 12 L 1 18 L 1 18.414062 L 1 19 L 2 19 L 8 19 L 11 19 L 11 18 L 8 18 L 2 18 L 2 17.414062 L 2.4628906 16.951172 L 8.7304688 10.683594 L 10.183594 12.134766 L 10.998047 12.949219 L 11 12.949219 L 11.816406 12.134766 L 13.269531 10.683594 L 14.585938 12 L 16 12 L 13.976562 9.9765625 L 19.728516 4.2226562 L 19.951172 4 L 20 4 L 20 4.2226562 L 20 10 L 21 10 L 21 3 L 20.951172 3 L 20 3 L 19.537109 3 L 2.4628906 3 L 2 3 L 1 3 z M 2 4 L 2.0488281 4 L 2.2714844 4.2226562 L 8.0234375 9.9765625 L 2 16 L 2 12 L 2 4.2226562 L 2 4 z M 3.4628906 4 L 18.537109 4 L 11 11.537109 L 3.4628906 4 z "
     class="ColorScheme-Text"
     />
    <path
     style="fill:#2ecc71;fill-opacity:1;stroke:none"
     d="M 19 11 L 18.003906 11.994141 L 18 11.990234 L 13 16.988281 L 13.007812 16.996094 L 13.003906 18 L 13 18 L 13 18.990234 L 13 19 L 15 19 L 15.005859 18.994141 L 15.009766 18.990234 C 15.013766 18.990214 15.015531 18.992188 15.019531 18.992188 L 15.013672 18.986328 L 16 18 L 20 14.003906 L 19.294922 13.294922 L 14.304688 18.28125 L 13.710938 17.689453 L 18.703125 12.701172 L 19.294922 13.294922 L 20 13.998047 L 21 12.998047 L 19 11 z "
     />
</svg>

<svg xmlns="http://www.w3.org/2000/svg" viewBox="0 0 22 22"><path style="fill:currentColor;fill-opacity:1;stroke:none;color:#5d656b" d="M1 3v16h10v-1H2v-.586l.463-.463 6.267-6.267 1.454 1.45.814.815H11l.816-.814 1.454-1.451L14.586 12H16l-2.023-2.023 5.752-5.754L19.95 4H20v6h1V3H1zm1 1h.049l.222.223 5.752 5.754L2 16V4zm1.463 0h15.074L11 11.537 3.463 4z"/><path style="fill:#2ecc71;fill-opacity:1;stroke:none" d="m19 11-.996.994L18 11.99l-5 4.998.008.008L13.004 18H13v1h2l.006-.006.004-.004.01.002-.006-.006L16 18l4-3.996-.705-.71-4.99 4.987-.594-.592 4.992-4.988.592.594.705.703 1-1L19 11z"/></svg>
